sites/all/themes/sedermera/graphics/prospect.svg

<svg xmlns="http://www.w3.org/2000/svg" width="20" height="20" viewbox="0 0 20 20">
  <path fill="#B2B3B6" d="M12 3v14h-10v-14h10zm2-2h-14v18h14v-18zm-11 4h8v2h-8v-2zm0 4h8v2h-8v-2zm0 4h8v2h-8v-2zm14-9h3v12h-3v-12zm1-4l-1 1v2h3v-2l-1-1h-1zm-1 17l1 3h1l1-3h-3z"/>
</svg>

<?xml version="1.0" encoding="utf-8"?>
<!-- Generator: Adobe Illustrator 18.0.0, SVG Export Plug-In . SVG Version: 6.00 Build 0)  -->
<!DOCTYPE svg PUBLIC "-//W3C//DTD SVG 1.1//EN" "http://www.w3.org/Graphics/SVG/1.1/DTD/svg11.dtd">
<svg version="1.1" id="Layer_1" xmlns="http://www.w3.org/2000/svg" xmlns:xlink="http://www.w3.org/1999/xlink" x="0px" y="0px"
	 width="20px" height="20px" viewBox="0 0 20 20" enable-background="new 0 0 20 20" xml:space="preserve">
<path fill="#B2B3B6" d="M12,3v14H2V3H12z M14,1H0v18h14V1z M3,5h8v2H3V5z M3,9h8v2H3V9z M3,13h8v2H3V13z M17,4h3v12h-3V4z M18,0
	l-1,1v2h3V1l-1-1H18z M17,17l1,3h1l1-3H17z"/>
</svg>
